X: 3066
T: Bean Pháidín
R: slip jig
M: 9/8
K: Gmajor
|:BAG Bdd Bdd|BAG BdB A2G|BAG Bdd Bdd|edd gdB A2G:|
|:def gba age|def gba g3|def gba age|dBd gdB A2G:|

